packages/components/icon/src/assets/icons/forward.svg

<svg width="24" height="24" viewBox="0 0 24 24" fill="none" xmlns="http://www.w3.org/2000/svg">
<path fill-rule="evenodd" clip-rule="evenodd" d="M12.9618 18.4091C12.8605 18.4091 12.781 18.3657 12.7231 18.2789C12.6653 18.1921 12.6364 18.0692 12.6364 17.9101V15.0031L13.5692 14.2438C13.8729 13.9835 14.1116 13.6761 14.2851 13.3218C14.4587 12.9675 14.5455 12.595 14.5455 12.2045C14.5455 11.814 14.4587 11.4416 14.2851 11.0873C14.1116 10.733 13.8729 10.4256 13.5692 10.1653L12.6364 9.40599V6.49897C12.6364 6.33988 12.6653 6.21694 12.7231 6.13017C12.781 6.04339 12.8605 6 12.9618 6C13.0775 6 13.1932 6.05062 13.3089 6.15186L19.9907 11.6405C20.1787 11.7851 20.2727 11.9731 20.2727 12.2045C20.2727 12.407 20.1787 12.595 19.9907 12.7686L13.3089 18.2572C13.1932 18.3585 13.0775 18.4091 12.9618 18.4091ZM5.32541 18.4091C5.22417 18.4091 5.14463 18.3657 5.08678 18.2789C5.02893 18.1921 5 18.0692 5 17.9101V6.49897C5 6.33988 5.02893 6.21694 5.08678 6.13017C5.14463 6.04339 5.22417 6 5.32541 6C5.44112 6 5.55682 6.05062 5.67252 6.15186L12.3543 11.6405C12.5424 11.7851 12.6364 11.9731 12.6364 12.2045C12.6364 12.407 12.5424 12.595 12.3543 12.7686L5.67252 18.2572C5.55682 18.3585 5.44112 18.4091 5.32541 18.4091Z" fill="currentColor"/>
</svg>

<svg viewBox="0 0 24 24" fill="none" xmlns="http://www.w3.org/2000/svg"><path fill-rule="evenodd" clip-rule="evenodd" d="M12.962 18.41a.272.272 0 0 1-.239-.131.663.663 0 0 1-.087-.369v-2.907l.933-.76a2.86 2.86 0 0 0 .716-.921c.174-.354.26-.727.26-1.117 0-.391-.086-.763-.26-1.118a2.86 2.86 0 0 0-.716-.922l-.933-.759V6.499c0-.16.03-.282.087-.369a.272.272 0 0 1 .239-.13.53.53 0 0 1 .347.152l6.682 5.488a.68.68 0 0 1 .282.564c0 .203-.094.391-.282.565l-6.682 5.488a.53.53 0 0 1-.347.152Zm-7.637 0a.272.272 0 0 1-.238-.131A.662.662 0 0 1 5 17.91V6.5a.66.66 0 0 1 .087-.369A.272.272 0 0 1 5.325 6a.53.53 0 0 1 .348.152l6.681 5.488a.679.679 0 0 1 .282.564c0 .203-.094.391-.282.565l-6.681 5.488a.53.53 0 0 1-.348.152Z" fill="currentColor"/></svg>
